packages/ui-icons/src/Basic/16/Phone_16.svg

<svg xmlns="http://www.w3.org/2000/svg" viewBox="0 0 20 20"><path d="M13 18H7a2 2 0 0 1-2-2V4a2 2 0 0 1 2-2h6a2 2 0 0 1 2 2v12a2 2 0 0 1-2 2ZM7 3a1 1 0 0 0-1 1v12a1 1 0 0 0 1 1h6a1 1 0 0 0 1-1V4a1 1 0 0 0-1-1Zm5 1H8v1h4Zm-2 10a1 1 0 1 0 1 1 1 1 0 0 0-1-1Z"/></svg>

<svg id="ready" xmlns="http://www.w3.org/2000/svg" viewBox="0 0 20 20"><title>Megaicons_work_16_1.8_cp</title><path d="M13,18H7a2,2,0,0,1-2-2V4A2,2,0,0,1,7,2h6a2,2,0,0,1,2,2V16A2,2,0,0,1,13,18ZM7,3A1,1,0,0,0,6,4V16a1,1,0,0,0,1,1h6a1,1,0,0,0,1-1V4a1,1,0,0,0-1-1Zm5,1H8V5h4ZM10,14a1,1,0,1,0,1,1A1,1,0,0,0,10,14Z"/></svg>
